X:9082
T:La Toque Bleue
M:4/4
K:G
d2 BG d2 BG|FGAB cBAG|d2 BG d2 BG|FGAF G4:||G2G2 FGAB|cedc B2 (3ABA|G2G2 BGdB|c2A2G4:||
